X: 1
T:Jenny's Wedding -- Reel
M:C|
L:1/8
C:J. HAND.
R:reel
B:Ryan's Mammoth Collection
N:222
Z:Contributed by Ray Davies,  ray:davies99.freeserve.co.uk
K:D
UGE"^Segno"|\
(3.D.D.D (FD) ADFD | Adde fded | cAAB =c2(cd) | eaag edd^c |
(3.D.D.D (FA) defd | cAAB cdeg | fdec d2(cA) | BdAF EDFA |]
vd2(fd) a2(fd) | ecAB cdec | d2(fd) a2(fd) | cdeg (fd)d2 |
 d2(fd) a2(fd) | cdef g2(fg) | ((3agf) (ge) fdec | dfeg (fd) d z \
"^Segno"|]
